X: 4811
T: Return from India
O: Traditional Cape Breton
Z: 2015 John Chambers <jc:trillian.mit.edu>
N: Tune for the dance The Fireworks Reel
R: reel
M: 4/4
K: A
L: 1/8
e2 |\
"A"agae "E/A"agae | "Bm"dcBA "E7"GBBe |\
"A"agae "E/A"agae | "D"fe"E7"fg "A"a2 fg |
"F#m"aAgA "A/F#m"fAeA | "Bm"dcBA "E7"GBed |\
"A"ceAc "Bm"dfBa | "E7"gefg "A"a2 |]
e2 |\
"A"dcBA "E/A"cAce | "D"dcBA "E7"GBEe |\
"A"dcBA cAeA | "D"fA"E"gA "A"a2 e2 |
"A"dcBA "F#m"cAce | "Bm"dcBA "E7"GBEe |\
"A"dcBA "F#m"cAeA | "D"fA"E7"gA "A"a2 |]
%%center Book48/4811-Return_From_India-A-16-4.abc

%%sep 1 1 500
%%sep 1 1 500

